build/assets/images/proyectos/logos/logo-unicef.svg

<svg width="200" height="200" viewBox="0 0 200 200" fill="none" xmlns="http://www.w3.org/2000/svg">
<rect width="200" height="200" fill="white"/>
<g clip-path="url(#clip0)">
<path d="M157.626 81.0326C149.333 81.0326 142.504 87.7318 142.504 96.1545C142.504 104.447 149.203 111.276 157.626 111.276C165.919 111.276 172.748 104.577 172.748 96.1545C172.748 87.7318 165.919 81.0326 157.626 81.0326ZM169.333 87.7318C168.585 88.2196 167.74 88.7074 166.894 89.1952C166.406 88.2196 165.789 87.244 165.073 86.3984C165.691 86.0407 166.309 85.5529 166.797 85.1627C167.87 85.7806 168.715 86.7562 169.333 87.7318ZM162.992 82.7562C164.228 83.244 165.301 83.8619 166.406 84.7074C165.919 85.1952 165.301 85.5529 164.683 85.9432C163.935 85.0976 163.089 84.3497 162.244 83.6342C162.504 83.244 162.764 82.9838 162.992 82.7562ZM164.228 86.1708C163.382 86.6586 162.504 86.9188 161.658 87.2765C161.301 86.431 160.911 85.5529 160.423 84.8375C160.911 84.5773 161.398 84.3497 161.756 83.9919C162.634 84.5773 163.48 85.2928 164.228 86.1708ZM162.374 82.496C162.114 82.7562 161.886 82.9838 161.756 83.244C160.911 82.7562 160.163 82.2684 159.187 81.9106C160.325 81.8781 161.398 82.1383 162.374 82.496ZM161.301 83.6017C160.943 83.8619 160.553 84.0895 160.195 84.2196C159.707 83.4716 159.219 82.8863 158.732 82.1383C159.577 82.496 160.423 82.9838 161.301 83.6017ZM157.854 82.2684C158.471 82.8863 158.959 83.6017 159.447 84.4797C158.959 84.6098 158.471 84.7399 157.854 84.7399V82.2684ZM157.854 85.2928C158.471 85.2928 159.187 85.1627 159.805 84.935C160.293 85.683 160.65 86.5285 161.041 87.3741C160.065 87.6342 158.959 87.7318 157.854 87.8619V85.2928ZM157.268 82.2684V84.7074C156.78 84.7074 156.293 84.5773 155.675 84.4472C156.293 83.7318 156.78 82.9838 157.268 82.2684ZM155.187 84.2196C154.829 84.0895 154.341 83.8619 154.081 83.6017C154.927 83.1139 155.805 82.6261 156.65 82.2684C156.032 82.8537 155.545 83.4716 155.187 84.2196ZM156.032 81.7806C155.187 82.1383 154.309 82.6261 153.463 83.1139C153.203 82.8537 152.976 82.6261 152.845 82.3659C153.854 82.1383 154.927 81.8781 156.032 81.7806ZM166.406 107.634C164.455 106.529 164.325 104.935 164.455 104.447C164.585 103.829 164.943 104.09 165.203 104.09C166.537 104.09 167.902 103.732 169.593 101.878C171.545 99.9269 172.163 95.5367 169.106 92.7399C165.919 89.683 162.504 90.1708 160.325 93.0001C159.837 93.618 158.732 93.9757 157.886 93.9757C156.423 93.9757 157.398 95.0814 157.398 95.309C157.398 95.5692 157.138 95.6667 157.041 95.6667C156.553 95.5367 156.78 96.2846 156.78 96.4147C156.78 96.5448 156.52 96.7724 156.52 96.7724C155.902 96.7724 156.032 97.2602 156.163 97.5204C156.163 97.6505 156.163 97.8781 155.902 98.0082C155.642 98.1383 155.545 98.6261 155.545 98.9838C155.545 99.6017 156.163 100.089 157.138 100.805C158.114 101.553 158.244 102.268 158.244 102.756C158.244 103.244 158.374 104.09 158.504 104.577C158.764 105.195 158.764 106.398 157.398 106.398C155.675 106.529 152.748 107.732 152.52 107.862C151.545 108.22 150.309 108.35 149.333 108.122C148.845 107.764 148.358 107.374 147.87 106.886C147.61 106.268 148 105.553 148.358 105.065C148.976 105.683 149.691 105.553 150.179 105.553C150.667 105.553 152.878 105.195 153.236 105.065C153.593 104.935 153.724 104.935 153.854 105.065C154.699 105.423 155.935 105.423 156.423 103.829C156.911 102.106 155.805 102.594 155.577 102.724C155.447 102.854 155.219 102.724 155.317 102.594C155.577 102.236 155.187 102.236 155.057 102.236C154.569 102.236 153.951 102.724 153.821 102.854C153.561 102.984 153.463 102.984 153.333 102.984C152.715 102.626 150.894 103.114 150.276 102.138C150.276 101.878 149.789 97.8781 149.528 97.1302C149.528 97.0001 149.398 96.7724 149.658 96.5123C150.146 95.7643 151.382 96.5123 152.098 96.5123C152.943 96.5123 153.073 96.1545 153.333 95.8944C153.593 95.6342 153.691 95.7643 153.821 95.6342C153.951 95.5041 153.821 95.3741 153.821 95.2765C153.821 95.1789 153.951 95.2765 154.081 95.1464C154.211 95.0163 154.081 94.7887 154.081 94.6586C154.341 94.3009 154.829 94.5285 154.569 93.8131C154.439 93.3253 154.699 92.8375 154.927 92.5773C155.285 92.0895 156.878 89.8781 154.179 87.5692C151.61 85.3578 148.943 85.618 147.219 87.4391C145.496 89.2602 146.374 91.9594 146.472 92.6749C146.602 93.4228 146.114 94.0082 145.496 94.2684C145.008 94.5285 143.902 95.244 143.187 95.8619C143.317 90.0082 146.862 84.87 152.228 82.8212C152.488 83.0814 152.715 83.4391 152.976 83.6667C152.358 84.1545 151.024 85.2602 151.024 85.2602C151.024 85.2602 151.154 85.2602 151.382 85.3903C151.512 85.3903 151.74 85.5204 151.74 85.5204C151.74 85.5204 152.845 84.5448 153.463 84.1871C153.821 84.5448 154.309 84.805 154.797 85.0326C154.537 85.5204 153.821 86.7562 153.821 86.7562C153.821 86.7562 153.951 86.8863 154.081 86.8863C154.211 87.0163 154.341 87.0163 154.341 87.0163C154.341 87.0163 155.089 85.683 155.317 85.1952C155.935 85.4554 156.553 85.5529 157.138 85.5529V87.9919C156.78 87.9919 155.902 87.9919 155.545 87.8619H155.285L155.415 88.122C155.545 88.2521 155.545 88.3822 155.675 88.4797H157.138V93.0001H157.756V91.8944C158.732 91.8944 159.48 91.7643 160.325 91.6342L161.171 90.8863H160.683C159.707 91.0163 158.862 91.1464 158.114 91.1464H157.756V88.3497C158.862 88.3497 160.065 88.2196 161.171 87.8619C161.431 88.6098 162.016 90.431 162.016 90.431L162.634 90.1708C162.634 90.1708 162.016 88.3497 161.789 87.6017C162.764 87.3415 163.61 86.8537 164.488 86.496C165.236 87.3415 165.821 88.3171 166.309 89.2928C165.821 89.5529 165.073 89.7806 165.073 89.7806C165.691 89.9106 166.179 90.0407 166.179 90.0407C166.179 90.0407 166.439 89.9106 166.537 89.9106C166.537 90.0407 166.667 90.2684 166.667 90.2684L167.512 90.6261L167.382 90.3659C167.382 90.3659 167.122 89.748 167.024 89.618C167.87 89.2602 168.748 88.7724 169.593 88.1545C171.187 90.4635 171.902 93.2928 171.902 96.0895C172.13 100.805 169.821 104.935 166.406 107.634Z" fill="black"/>
<path d="M141.171 85.0651L140.911 85.3253C140.065 86.0732 137.984 88.122 138.341 90.4635V90.5935L138.472 91.0814L138.732 90.8212C139.967 89.7155 140.943 87.7643 141.301 85.5854L141.431 84.9675L141.171 85.0651Z" fill="black"/>
<path d="M137.008 88.9676L136.878 89.2277C136.748 89.5854 136.52 90.4635 136.39 91.4391C136.13 92.9025 136.26 95.1139 137.496 96.6749L137.756 97.1627L138.016 96.1871C138.276 94.4635 137.886 90.9513 137.268 89.3578L137.008 88.87V88.9676Z" fill="black"/>
<path d="M135.545 95.0488V95.309C135.415 96.7724 135.545 100.545 138.602 102.626L138.959 102.886V102.398C138.959 100.935 137.236 96.6749 136.032 95.2114L135.675 94.7236L135.545 95.0488Z" fill="black"/>
<path d="M136.032 101.781V102.041C136.52 104.252 138.471 107.667 141.658 108.74L142.146 108.87L142.016 108.382C141.398 106.789 138.341 103.016 136.39 101.781L136.032 101.52V101.781Z" fill="black"/>
<path d="M142.504 88.3497L142.146 88.4798C139.837 89.9432 138.732 91.6668 138.732 93.8456V94.3334L139.089 94.0733C140.325 92.9676 142.016 90.3009 142.374 88.8375L142.504 88.2196V88.3497Z" fill="black"/>
<path d="M141.041 93L140.911 93.2602C140.293 93.8781 138.341 95.9594 138.472 98.496C138.472 98.8537 138.602 99.3415 138.732 99.7317L138.862 100.089L139.122 99.7317C140.098 98.3984 141.333 94.9838 141.203 93.3903V92.9025L141.041 93Z" fill="black"/>
<path d="M141.171 97.5203L141.041 97.7805C140.065 99.2439 139.577 100.707 139.577 102.171C139.577 103.146 139.935 104.122 140.553 105.098L140.813 105.455L140.943 105.098C141.301 104.252 141.691 101.683 141.691 99.6016C141.691 98.8537 141.561 98.2683 141.431 97.8781L141.301 97.3903L141.171 97.5203Z" fill="black"/>
<path d="M142.244 102.268L142.114 102.529C141.854 103.504 141.626 104.35 141.756 105.325C141.756 107.276 142.732 108.87 144.455 109.976L144.715 110.106L144.846 109.748V109.39C144.846 107.797 143.61 103.667 142.634 102.431L142.374 102.073L142.244 102.268Z" fill="black"/>
<path d="M138.959 108.61L139.089 108.87C140.325 110.951 142.504 113.748 146.537 113.033H146.894L146.634 112.772C145.886 111.667 141.008 108.87 139.317 108.61L138.829 108.48L138.959 108.61Z" fill="black"/>
<path d="M144.943 113.976L144.325 114.106L144.943 114.366C147.512 115.472 150.667 115.699 152.618 115.114C153.366 114.854 153.724 114.496 154.211 114.008C157.496 114.366 160.553 117.065 162.374 119.244L162.504 119.374H162.634C162.894 119.244 163.122 119.016 163.252 118.886L163.382 118.756L163.252 118.626C161.431 116.187 158.504 114.724 158.374 114.594C155.675 113.358 151.024 112.382 144.943 113.976Z" fill="black"/>
<path d="M145.073 107.146V107.407C145.431 109.846 146.406 113.033 150.569 112.642H150.829L150.699 112.382C150.439 111.276 146.667 108.122 145.333 107.244L144.976 106.984L145.073 107.146Z" fill="black"/>
<path d="M173.854 84.8049L173.984 85.4228C174.341 87.6342 175.317 89.5854 176.553 90.6586L176.813 90.9188L176.943 90.4309V90.3009C177.301 87.9919 175.22 85.9106 174.374 85.1627L174.114 84.9025L173.854 84.8049Z" fill="black"/>
<path d="M178.114 88.7074L177.854 89.1952C177.236 90.7887 177.008 94.3334 177.106 96.0245L177.366 97.0001L177.496 96.87L177.626 96.6098C178.959 95.0163 178.959 92.935 178.732 91.3741C178.602 90.2684 178.374 89.5529 178.244 89.1627L178.114 88.9025V88.7074Z" fill="black"/>
<path d="M179.707 94.8212L179.35 95.309C178.114 96.9025 176.423 101.033 176.423 102.496V102.984L176.78 102.724C179.837 100.772 179.967 97 179.837 95.4065V95.1464L179.707 94.8212Z" fill="black"/>
<path d="M179.219 101.52L178.732 101.781C176.78 103.016 173.724 106.789 173.106 108.382L172.976 108.87L173.463 108.74C176.65 107.764 178.699 104.22 179.089 102.041V101.781L179.219 101.52Z" fill="black"/>
<path d="M172.748 88.1219L172.878 88.7398C173.366 90.3333 174.829 93 176.163 94.1057L176.52 94.3659V93.878C176.65 91.6667 175.545 89.9756 173.236 88.5122L172.976 88.3821L172.748 88.1219Z" fill="black"/>
<path d="M174.081 92.87V93.3578C173.951 94.9513 175.317 98.496 176.163 99.6993L176.423 100.057L176.553 99.6993C176.683 99.2115 176.813 98.8537 176.813 98.4635C176.943 95.8944 174.992 93.8131 174.374 93.2277L174.244 93.0976L174.081 92.87Z" fill="black"/>
<path d="M173.984 97.2603L173.854 97.7481C173.724 98.1058 173.594 98.7237 173.594 99.4716C173.594 101.553 173.854 104.122 174.341 104.968L174.472 105.325L174.732 104.968C175.35 104.122 175.707 103.146 175.707 102.041C175.707 100.707 175.22 99.1139 174.244 97.6505L174.114 97.3903L173.984 97.2603Z" fill="black"/>
<path d="M172.878 102.008L172.618 102.366C171.642 103.602 170.406 107.732 170.406 109.325V109.683L170.537 110.041L170.797 109.911C172.52 108.805 173.366 107.211 173.496 105.26C173.496 104.415 173.366 103.439 173.138 102.463L173.008 102.203L172.878 102.008Z" fill="black"/>
<path d="M176.423 108.35L175.935 108.48C174.211 108.74 169.333 111.537 168.618 112.642L168.358 112.903H168.715C172.748 113.651 174.927 110.821 176.163 108.74L176.293 108.48L176.423 108.35Z" fill="black"/>
<path d="M157.008 114.594C156.878 114.594 153.951 116.187 152.13 118.626L152 118.756L152.13 118.886C152.26 119.016 152.618 119.244 152.748 119.374H152.878L153.008 119.244C154.829 117.033 157.886 114.236 161.171 114.008C161.659 114.496 162.146 114.854 162.764 115.114C164.585 115.732 167.902 115.472 170.439 114.366L171.057 114.106L170.439 113.976C164.228 112.382 159.577 113.358 157.008 114.594Z" fill="black"/>
<path d="M170.179 106.886L169.821 107.146C168.488 107.992 164.813 111.179 164.455 112.285L164.325 112.545H164.585C168.618 112.902 169.593 109.748 170.081 107.309V107.016L170.179 106.886Z" fill="black"/>
<path d="M67.2195 82.496H72.3577V87.1464H67.2195V82.496ZM67.7073 92.5122H71.9675V115.211H67.7073V92.5122Z" fill="black"/>
<path d="M35.3821 92.5122H39.6422V115.211H35.4796V111.894H35.3496C33.626 114.691 30.6992 115.927 27.5447 115.927C22.7967 115.927 20.0975 112.252 20.0975 107.764V92.5122H24.3577V105.943C24.3577 109.846 25.2032 112.772 29.3658 112.772C31.0894 112.772 33.5284 111.927 34.374 109.488C35.2195 107.407 35.2195 104.74 35.2195 104.122V92.5447H35.3821V92.5122Z" fill="black"/>
<path d="M48.195 95.7968C49.7885 93.0001 52.8455 91.7643 55.1544 91.7643C56.7479 91.7643 63.7072 92.122 63.7072 99.4391V115.049H59.4471V100.772C59.4471 97.0001 57.8536 95.0488 54.2113 95.0488C54.2113 95.0488 51.9024 94.9188 50.0487 96.7724C49.4308 97.3903 48.2276 98.3659 48.2276 102.886V115.211H43.9674V92.5123H48.2276L48.195 95.7968Z" fill="black"/>
<path d="M89.9186 99.6992C89.6584 96.9025 88.3251 94.9513 85.2682 94.9513C81.2357 94.9513 79.6422 98.496 79.6422 103.732C79.6422 108.968 81.2357 112.512 85.2682 112.512C88.0649 112.512 89.7885 110.691 90.0162 107.374H94.2763C93.9186 112.512 90.1137 115.537 85.1381 115.537C77.9511 115.537 75.0243 110.398 75.0243 103.829C75.0243 97.2602 78.3088 91.7643 85.5284 91.7643C90.2763 91.7643 93.821 94.8212 94.0812 99.6992H89.9186Z" fill="black"/>
<path d="M100.65 104.577C100.293 108.48 101.984 112.642 106.276 112.642C109.561 112.642 111.284 111.309 111.772 107.992H116.26C115.512 113.13 111.61 115.667 106.244 115.667C99.0568 115.667 96.13 110.529 96.13 103.959C96.13 97.3903 99.4146 91.8944 106.634 91.8944C113.333 92.0245 116.52 96.2847 116.52 102.496V104.577H100.65ZM112.13 101.651C112.26 97.8781 110.537 94.9513 106.406 94.9513C102.862 94.9513 100.78 98.0082 100.78 101.651H112.13Z" fill="black"/>
<path d="M121.398 114.951V95.4391H117.496V92.5123H121.398V87.6342C121.528 82.7562 125.301 81.4229 128.488 81.4229C129.463 81.4229 130.569 81.683 131.545 81.9107V85.4554C130.797 85.4554 130.081 85.3253 129.333 85.3253C126.894 85.3253 125.561 85.9432 125.659 88.3822V92.5448H130.894V95.4716H125.659V114.984L121.398 114.951Z" fill="black"/>
</g>
<defs>
<clipPath id="clip0">
<rect width="160" height="38.374" fill="white" transform="translate(20 81)"/>
</clipPath>
</defs>
</svg>

<svg width="200" height="200" fill="none" xmlns="http://www.w3.org/2000/svg"><path fill="#fff" d="M0 0h200v200H0z"/><g clip-path="url(#clip0)" fill="#000"><path d="M157.626 81.033c-8.293 0-15.122 6.699-15.122 15.121 0 8.293 6.699 15.122 15.122 15.122 8.293 0 15.122-6.699 15.122-15.121 0-8.423-6.829-15.122-15.122-15.122zm11.707 6.699c-.748.488-1.593.975-2.439 1.463a14.22 14.22 0 00-1.821-2.797c.618-.357 1.236-.845 1.724-1.235 1.073.618 1.918 1.593 2.536 2.569zm-6.341-4.976c1.236.488 2.309 1.106 3.414 1.951-.487.488-1.105.846-1.723 1.236-.748-.845-1.594-1.593-2.439-2.309.26-.39.52-.65.748-.878zm1.236 3.415c-.846.488-1.724.748-2.57 1.105-.357-.845-.747-1.723-1.235-2.438.488-.26.975-.488 1.333-.846a11.9 11.9 0 012.472 2.179zm-1.854-3.675c-.26.26-.488.488-.618.748-.845-.488-1.593-.976-2.569-1.333 1.138-.033 2.211.227 3.187.585zm-1.073 1.106c-.358.26-.748.487-1.106.618-.488-.748-.976-1.334-1.463-2.082.845.358 1.691.846 2.569 1.464zm-3.447-1.334c.617.618 1.105 1.334 1.593 2.212-.488.13-.976.26-1.593.26v-2.472zm0 3.025a5.9 5.9 0 001.951-.358c.488.748.845 1.593 1.236 2.44-.976.26-2.082.357-3.187.487v-2.57zm-.586-3.025v2.44c-.488 0-.975-.13-1.593-.26.618-.716 1.105-1.464 1.593-2.18zm-2.081 1.952c-.358-.13-.846-.358-1.106-.618.846-.488 1.724-.976 2.569-1.334-.618.586-1.105 1.204-1.463 1.952zm.845-2.44c-.845.358-1.723.846-2.569 1.334-.26-.26-.487-.488-.618-.748 1.009-.228 2.082-.488 3.187-.585zm10.374 25.854c-1.951-1.105-2.081-2.699-1.951-3.187.13-.618.488-.357.748-.357 1.334 0 2.699-.358 4.39-2.212 1.952-1.951 2.57-6.341-.487-9.138-3.187-3.057-6.602-2.57-8.781.26-.488.618-1.593.976-2.439.976-1.463 0-.488 1.105-.488 1.333 0 .26-.26.358-.357.358-.488-.13-.261.618-.261.748s-.26.357-.26.357c-.618 0-.488.488-.357.748 0 .13 0 .358-.261.488-.26.13-.357.618-.357.976 0 .618.618 1.105 1.593 1.821.976.748 1.106 1.463 1.106 1.951s.13 1.334.26 1.821c.26.618.26 1.821-1.106 1.821-1.723.131-4.65 1.334-4.878 1.464-.975.358-2.211.488-3.187.26a12.318 12.318 0 01-1.463-1.236c-.26-.618.13-1.333.488-1.821.618.618 1.333.488 1.821.488s2.699-.358 3.057-.488c.357-.13.488-.13.618 0 .845.358 2.081.358 2.569-1.236.488-1.723-.618-1.235-.846-1.105-.13.13-.358 0-.26-.13.26-.358-.13-.358-.26-.358-.488 0-1.106.488-1.236.618-.26.13-.358.13-.488.13-.618-.358-2.439.13-3.057-.846 0-.26-.487-4.26-.748-5.008 0-.13-.13-.358.13-.618.488-.748 1.724 0 2.44 0 .845 0 .975-.358 1.235-.618.26-.26.358-.13.488-.26s0-.26 0-.358c0-.097.13 0 .26-.13s0-.357 0-.487c.26-.358.748-.13.488-.846-.13-.488.13-.975.358-1.236.358-.487 1.951-2.699-.748-5.008-2.569-2.211-5.236-1.951-6.96-.13-1.723 1.821-.845 4.52-.747 5.236.13.748-.358 1.333-.976 1.593-.488.26-1.594.976-2.309 1.594.13-5.854 3.675-10.992 9.041-13.04.26.26.487.617.748.845-.618.487-1.952 1.593-1.952 1.593s.13 0 .358.13c.13 0 .358.13.358.13s1.105-.975 1.723-1.333c.358.358.846.618 1.334.846-.26.487-.976 1.723-.976 1.723s.13.13.26.13c.13.13.26.13.26.13s.748-1.333.976-1.82c.618.26 1.236.357 1.821.357v2.439c-.358 0-1.236 0-1.593-.13h-.26l.13.26c.13.13.13.26.26.358h1.463V93h.618v-1.106c.976 0 1.724-.13 2.569-.26l.846-.748h-.488c-.976.13-1.821.26-2.569.26h-.358V88.35c1.106 0 2.309-.13 3.415-.488.26.748.845 2.569.845 2.569l.618-.26s-.618-1.821-.845-2.57c.975-.26 1.821-.747 2.699-1.105.748.846 1.333 1.821 1.821 2.797-.488.26-1.236.488-1.236.488.618.13 1.106.26 1.106.26s.26-.13.358-.13c0 .13.13.357.13.357l.845.358-.13-.26s-.26-.618-.358-.748a12.894 12.894 0 002.569-1.463c1.594 2.308 2.309 5.138 2.309 7.934.228 4.716-2.081 8.846-5.496 11.545zm-25.235-22.569l-.26.26c-.846.748-2.927 2.797-2.57 5.138v.13l.131.488.26-.26c1.235-1.105 2.211-3.057 2.569-5.236l.13-.617-.26.097zm-4.163 3.903l-.13.26c-.13.357-.358 1.236-.488 2.211-.26 1.464-.13 3.675 1.106 5.236l.26.488.26-.976c.26-1.724-.13-5.236-.748-6.83l-.26-.487v.098zm-1.463 6.081v.26c-.13 1.463 0 5.236 3.057 7.317l.357.26v-.488c0-1.463-1.723-5.723-2.927-7.187l-.357-.487-.13.325zm.487 6.732v.26c.488 2.211 2.439 5.626 5.626 6.699l.488.13-.13-.488c-.618-1.593-3.675-5.366-5.626-6.601l-.358-.261v.261zm6.472-13.431l-.358.13c-2.309 1.463-3.414 3.187-3.414 5.366v.487l.357-.26c1.236-1.105 2.927-3.772 3.285-5.235l.13-.618v.13zM141.041 93l-.13.26c-.618.618-2.57 2.7-2.439 5.236 0 .358.13.846.26 1.236l.13.357.26-.357c.976-1.334 2.211-4.748 2.081-6.342v-.487l-.162.097zm.13 4.52l-.13.26c-.976 1.464-1.464 2.927-1.464 4.391 0 .975.358 1.951.976 2.927l.26.357.13-.357c.358-.846.748-3.415.748-5.496a5.49 5.49 0 00-.26-1.724l-.13-.488-.13.13zm1.073 4.748l-.13.261c-.26.975-.488 1.821-.358 2.796 0 1.951.976 3.545 2.699 4.651l.26.13.131-.358v-.358c0-1.593-1.236-5.723-2.212-6.959l-.26-.358-.13.195zm-3.285 6.342l.13.26c1.236 2.081 3.415 4.878 7.448 4.163h.357l-.26-.261c-.748-1.105-5.626-3.902-7.317-4.162l-.488-.13.13.13zm5.984 5.366l-.618.13.618.26c2.569 1.106 5.724 1.333 7.675.748.748-.26 1.106-.618 1.593-1.106 3.285.358 6.342 3.057 8.163 5.236l.13.13h.13c.26-.13.488-.358.618-.488l.13-.13-.13-.13c-1.821-2.439-4.748-3.902-4.878-4.032-2.699-1.236-7.35-2.212-13.431-.618z"/><path d="M145.073 107.146v.261c.358 2.439 1.333 5.626 5.496 5.235h.26l-.13-.26c-.26-1.106-4.032-4.26-5.366-5.138l-.357-.26.097.162zm28.781-22.341l.13.618c.357 2.211 1.333 4.162 2.569 5.236l.26.26.13-.488v-.13c.358-2.31-1.723-4.39-2.569-5.138l-.26-.26-.26-.098zm4.26 3.902l-.26.488c-.618 1.594-.846 5.138-.748 6.83l.26.975.13-.13.13-.26c1.333-1.594 1.333-3.675 1.106-5.236a10.526 10.526 0 00-.488-2.211l-.13-.26v-.196zm1.593 6.114l-.357.488c-1.236 1.594-2.927 5.724-2.927 7.187v.488l.357-.26c3.057-1.952 3.187-5.724 3.057-7.318v-.26l-.13-.325zm-.488 6.699l-.487.261c-1.952 1.235-5.008 5.008-5.626 6.601l-.13.488.487-.13c3.187-.976 5.236-4.52 5.626-6.699v-.26l.13-.261zm-6.471-13.398l.13.618c.488 1.593 1.951 4.26 3.285 5.366l.357.26v-.488c.13-2.211-.975-3.902-3.284-5.366l-.26-.13-.228-.26zm1.333 4.748v.488c-.13 1.593 1.236 5.138 2.082 6.341l.26.358.13-.358c.13-.487.26-.845.26-1.236.13-2.569-1.821-4.65-2.439-5.235l-.13-.13-.163-.228zm-.097 4.39l-.13.488c-.13.358-.26.976-.26 1.724 0 2.081.26 4.65.747 5.496l.131.357.26-.357c.618-.846.975-1.822.975-2.927 0-1.334-.487-2.927-1.463-4.39l-.13-.26-.13-.13zm-1.106 4.748l-.26.358c-.976 1.236-2.212 5.366-2.212 6.959v.358l.131.358.26-.13c1.723-1.106 2.569-2.7 2.699-4.651 0-.845-.13-1.821-.358-2.797l-.13-.26-.13-.195zm3.545 6.342l-.488.13c-1.724.26-6.602 3.057-7.317 4.162l-.26.261h.357c4.033.748 6.212-2.082 7.448-4.163l.13-.26.13-.13zm-19.415 6.244c-.13 0-3.057 1.593-4.878 4.032l-.13.13.13.13c.13.13.488.358.618.488h.13l.13-.13c1.821-2.211 4.878-5.008 8.163-5.236.488.488.975.846 1.593 1.106 1.821.618 5.138.358 7.675-.748l.618-.26-.618-.13c-6.211-1.594-10.862-.618-13.431.618zm13.171-7.708l-.358.26c-1.333.846-5.008 4.033-5.366 5.139l-.13.26h.26c4.033.357 5.008-2.797 5.496-5.236v-.293l.098-.13zM67.22 82.496h5.138v4.65h-5.139v-4.65zm.487 10.016h4.26v22.699h-4.26V92.512zm-32.325 0h4.26v22.699H35.48v-3.317h-.13c-1.724 2.797-4.65 4.033-7.805 4.033-4.748 0-7.448-3.675-7.448-8.163V92.512h4.26v13.431c0 3.903.846 6.829 5.009 6.829 1.723 0 4.162-.845 5.008-3.284.845-2.081.845-4.748.845-5.366V92.545h.163v-.033zm12.813 3.285c1.593-2.797 4.65-4.033 6.96-4.033 1.593 0 8.552.358 8.552 7.675v15.61h-4.26v-14.277c0-3.772-1.593-5.723-5.236-5.723 0 0-2.309-.13-4.162 1.723-.618.618-1.821 1.594-1.821 6.114v12.325h-4.26V92.512h4.26l-.033 3.285zM89.919 99.7c-.26-2.797-1.594-4.749-4.65-4.749-4.033 0-5.627 3.545-5.627 8.781 0 5.236 1.594 8.78 5.626 8.78 2.797 0 4.52-1.821 4.748-5.138h4.26c-.357 5.138-4.162 8.163-9.138 8.163-7.187 0-10.114-5.139-10.114-11.708s3.285-12.065 10.504-12.065c4.748 0 8.293 3.057 8.553 7.935H89.92zm10.731 4.877c-.357 3.903 1.334 8.065 5.626 8.065 3.285 0 5.008-1.333 5.496-4.65h4.488c-.748 5.138-4.65 7.675-10.016 7.675-7.187 0-10.114-5.138-10.114-11.708 0-6.569 3.285-12.065 10.504-12.065 6.699.13 9.886 4.39 9.886 10.602v2.081h-15.87zm11.48-2.926c.13-3.773-1.593-6.7-5.724-6.7-3.544 0-5.626 3.057-5.626 6.7h11.35zm9.268 13.3V95.439h-3.902v-2.927h3.902v-4.878c.13-4.878 3.903-6.211 7.09-6.211.975 0 2.081.26 3.057.488v3.544c-.748 0-1.464-.13-2.212-.13-2.439 0-3.772.618-3.674 3.057v4.163h5.235v2.927h-5.235v19.512l-4.261-.033z"/></g><defs><clipPath id="clip0"><path fill="#fff" transform="translate(20 81)" d="M0 0h160v38.374H0z"/></clipPath></defs></svg>
